svg/fluentui-system-icons/ic_fluent_window_shield_24_regular.svg

<svg width="24" height="24" viewBox="0 0 24 24" fill="none" xmlns="http://www.w3.org/2000/svg">
<path d="M17.9356 3.00514L17.7512 3H6.25L6.06558 3.00514C4.35645 3.10075 3 4.51697 3 6.25V17.75L3.00514 17.9344C3.10075 19.6435 4.51697 21 6.25 21H14.535C14.4338 20.8859 14.3371 20.7678 14.2449 20.6457C13.9758 20.2891 13.752 19.9064 13.5719 19.5H6.25L6.10647 19.4942C5.20711 19.4212 4.5 18.6682 4.5 17.75L4.5012 8H19.5L19.5005 11.8864C19.9904 12.2806 20.4877 12.5125 21.0012 12.6108V6.25L20.9961 6.06558C20.9039 4.4175 19.5837 3.09734 17.9356 3.00514ZM6.25098 4.5H17.751C18.7175 4.5 19.501 5.2835 19.501 6.25V6.5H4.50098V6.25C4.50098 5.2835 5.28448 4.5 6.25098 4.5ZM21.0012 13.6245C20.4776 13.5496 19.9779 13.3745 19.5006 13.0977C19.078 12.8527 18.6729 12.5279 18.2843 12.1223C18.1282 11.9594 17.8748 11.9592 17.7184 12.122C16.7239 13.1575 15.624 13.6667 14.4006 13.6667C14.1797 13.6667 14.0006 13.8532 14.0006 14.0833V16.5844L14.005 16.8497C14.0387 17.8629 14.2679 18.7478 14.6886 19.5C15.0126 20.0794 15.4504 20.5801 16.0001 21C16.5237 21.4 17.1489 21.7268 17.8741 21.9786C17.9562 22.0071 18.045 22.0071 18.1271 21.9786C20.6876 21.0896 22.0006 19.2663 22.0006 16.5844V14.0833L21.9925 13.9994C21.9552 13.8095 21.7939 13.6667 21.6006 13.6667C21.3974 13.6667 21.1976 13.6527 21.0012 13.6245Z" fill="#212121"/>
</svg>

<svg xmlns="http://www.w3.org/2000/svg" width="24" height="24"><path d="M17.936 3.005 17.75 3H6.25l-.184.005A3.25 3.25 0 0 0 3 6.25v11.5l.005.184A3.25 3.25 0 0 0 6.25 21h8.285a5.812 5.812 0 0 1-.963-1.5H6.25l-.144-.006A1.75 1.75 0 0 1 4.5 17.75L4.501 8H19.5v3.886c.49.395.988.627 1.501.725V6.25l-.005-.184a3.25 3.25 0 0 0-3.06-3.06ZM6.25 4.5h11.5c.966 0 1.75.784 1.75 1.75v.25h-15v-.25c0-.966.783-1.75 1.75-1.75ZM21 13.624a4.134 4.134 0 0 1-1.5-.526 5.55 5.55 0 0 1-1.217-.976.389.389 0 0 0-.566 0c-.994 1.036-2.094 1.545-3.317 1.545-.221 0-.4.186-.4.416v2.501l.004.266c.034 1.013.263 1.898.684 2.65.324.58.761 1.08 1.311 1.5.524.4 1.149.727 1.874.979a.392.392 0 0 0 .253 0c2.56-.89 3.874-2.713 3.874-5.395v-2.5l-.009-.085a.405.405 0 0 0-.391-.332c-.204 0-.403-.014-.6-.043Z"/></svg>
